packages/icons/src/dependency-ci-step-inverse.svg

<svg fill="none" viewBox="0 0 40 41" xmlns="http://www.w3.org/2000/svg"><path clip-rule="evenodd" d="m12.4648 7.59197c-.0563.04958-.0748.10162-.0748.14427v3.30576c0 .0427.0185.0947.0748.1443.0572.0504.1474.0904.2591.0904h14.5936c.1118 0 .2019-.04.2592-.0904.0563-.0496.0747-.1016.0747-.1443v-3.30576c0-.04265-.0184-.09469-.0747-.14427-.0573-.05043-.1474-.09035-.2592-.09035h-14.5936c-.1117 0-.2019.03992-.2591.09035zm-1.0748.14427c0-.73954.6587-1.23462 1.3339-1.23462h14.5936c.6753 0 1.3339.49508 1.3339 1.23462v3.30576c0 .7396-.6586 1.2347-1.3339 1.2347h-14.5936c-.6752 0-1.3339-.4951-1.3339-1.2347zm19.3172 2.82436c0-.2761.2238-.5.5-.5h4.8339c.7143 0 1.3339.5584 1.3339 1.2959v9.1521c0 .7376-.6196 1.2958-1.3339 1.2958h-3.8625l1.5141 1.1005c.2234.1623.2728.475.1105.6984-.1624.2233-.475.2728-.6984.1105l-2.7586-2.0049c-.1296-.0942-.2062-.2447-.2061-.4048s.0769-.3105.2066-.4045l2.7586-1.9995c.2236-.162.5362-.1122.6983.1114.162.2236.1121.5362-.1114.6983l-1.5103 1.0946h3.8592c.2067 0 .3339-.1542.3339-.2958v-9.1521c0-.1416-.1273-.2959-.3339-.2959h-4.8339c-.2762 0-.5-.2238-.5-.5zm-18.2424 7.7763c-.0563.0496-.0748.1016-.0748.1443v3.3058c0 .0426.0185.0947.0748.1443.0572.0504.1474.0903.2591.0903h14.5936c.1118 0 .2019-.0399.2592-.0903.0563-.0496.0747-.1017.0747-.1443v-3.3058c0-.0427-.0184-.0947-.0747-.1443-.0573-.0504-.1474-.0903-.2592-.0903h-14.5936c-.1117 0-.2019.0399-.2591.0903zm-1.0748.1443c0-.7396.6587-1.2346 1.3339-1.2346h14.5936c.6753 0 1.3339.495 1.3339 1.2346v3.3058c0 .7395-.6586 1.2346-1.3339 1.2346h-14.5936c-.6752 0-1.3339-.4951-1.3339-1.2346zm-8.765 2.463c0-.7373.61945-1.2958 1.33392-1.2958h4.8338c.27614 0 .5.2238.5.5 0 .2761-.22386.5-.5.5h-4.8338c-.20668 0-.33392.1542-.33392.2958v9.1522c0 .1417.12717.2958.33392.2958h3.85912l-1.51023-1.0946c-.22359-.1621-.27347-.4747-.11141-.6983s.47469-.2734.69828-.1114l2.75862 1.9995c.12966.094.20646.2444.20656.4045.00011.1601-.0765.3106-.20604.4048l-2.75862 2.0049c-.22338.1623-.53608.1128-.69842-.1105-.16235-.2234-.11287-.5361.11051-.6985l1.51412-1.1004h-3.86249c-.7144 0-1.33392-.5582-1.33392-1.2958zm9.8398 8.1227c-.0563.0496-.0748.1016-.0748.1443v3.3058c0 .0426.0185.0947.0748.1443.0572.0504.1474.0903.2591.0903h14.5936c.1118 0 .2019-.0399.2592-.0903.0563-.0496.0747-.1017.0747-.1443v-3.3058c0-.0427-.0184-.0947-.0747-.1443-.0573-.0504-.1474-.0903-.2592-.0903h-14.5936c-.1117 0-.2019.0399-.2591.0903zm-1.0748.1443c0-.7396.6587-1.2346 1.3339-1.2346h14.5936c.6753 0 1.3339.495 1.3339 1.2346v3.3058c0 .7395-.6586 1.2346-1.3339 1.2346h-14.5936c-.6752 0-1.3339-.4951-1.3339-1.2346z" fill="#fafcff" fill-rule="evenodd"/></svg>

<svg viewBox="0 0 40 41" fill="none" xmlns="http://www.w3.org/2000/svg">
<path fill-rule="evenodd" clip-rule="evenodd" d="M12.4648 7.59197C12.4085 7.64155 12.39 7.69359 12.39 7.73624V11.042C12.39 11.0847 12.4085 11.1367 12.4648 11.1863C12.522 11.2367 12.6122 11.2767 12.7239 11.2767H27.3175C27.4293 11.2767 27.5194 11.2367 27.5767 11.1863C27.633 11.1367 27.6514 11.0847 27.6514 11.042V7.73624C27.6514 7.69359 27.633 7.64155 27.5767 7.59197C27.5194 7.54154 27.4293 7.50162 27.3175 7.50162H12.7239C12.6122 7.50162 12.522 7.54154 12.4648 7.59197ZM11.39 7.73624C11.39 6.9967 12.0487 6.50162 12.7239 6.50162H27.3175C27.9928 6.50162 28.6514 6.9967 28.6514 7.73624V11.042C28.6514 11.7816 27.9928 12.2767 27.3175 12.2767H12.7239C12.0487 12.2767 11.39 11.7816 11.39 11.042V7.73624ZM30.7072 10.5606C30.7072 10.2845 30.931 10.0606 31.2072 10.0606H36.0411C36.7554 10.0606 37.375 10.619 37.375 11.3565V20.5086C37.375 21.2462 36.7554 21.8044 36.0411 21.8044H32.1786L33.6927 22.9049C33.9161 23.0672 33.9655 23.3799 33.8032 23.6033C33.6408 23.8266 33.3282 23.8761 33.1048 23.7138L30.3462 21.7089C30.2166 21.6147 30.14 21.4642 30.1401 21.3041C30.1402 21.144 30.217 20.9936 30.3467 20.8996L33.1053 18.9001C33.3289 18.7381 33.6415 18.7879 33.8036 19.0115C33.9656 19.2351 33.9157 19.5477 33.6922 19.7098L32.1819 20.8044H36.0411C36.2478 20.8044 36.375 20.6502 36.375 20.5086V11.3565C36.375 11.2149 36.2477 11.0606 36.0411 11.0606H31.2072C30.931 11.0606 30.7072 10.8368 30.7072 10.5606ZM12.4648 18.3369C12.4085 18.3865 12.39 18.4385 12.39 18.4812V21.787C12.39 21.8296 12.4085 21.8817 12.4648 21.9313C12.522 21.9817 12.6122 22.0216 12.7239 22.0216H27.3175C27.4293 22.0216 27.5194 21.9817 27.5767 21.9313C27.633 21.8817 27.6514 21.8296 27.6514 21.787V18.4812C27.6514 18.4385 27.633 18.3865 27.5767 18.3369C27.5194 18.2865 27.4293 18.2466 27.3175 18.2466H12.7239C12.6122 18.2466 12.522 18.2865 12.4648 18.3369ZM11.39 18.4812C11.39 17.7416 12.0487 17.2466 12.7239 17.2466H27.3175C27.9928 17.2466 28.6514 17.7416 28.6514 18.4812V21.787C28.6514 22.5265 27.9928 23.0216 27.3175 23.0216H12.7239C12.0487 23.0216 11.39 22.5265 11.39 21.787V18.4812ZM2.625 20.9442C2.625 20.2069 3.24445 19.6484 3.95892 19.6484H8.79272C9.06886 19.6484 9.29272 19.8722 9.29272 20.1484C9.29272 20.4245 9.06886 20.6484 8.79272 20.6484H3.95892C3.75224 20.6484 3.625 20.8026 3.625 20.9442V30.0964C3.625 30.2381 3.75217 30.3922 3.95892 30.3922H7.81804L6.30781 29.2976C6.08422 29.1355 6.03434 28.8229 6.1964 28.5993C6.35846 28.3757 6.67109 28.3259 6.89468 28.4879L9.6533 30.4874C9.78296 30.5814 9.85976 30.7318 9.85986 30.8919C9.85997 31.052 9.78336 31.2025 9.65382 31.2967L6.8952 33.3016C6.67182 33.4639 6.35912 33.4144 6.19678 33.1911C6.03443 32.9677 6.08391 32.655 6.30729 32.4926L7.82141 31.3922H3.95892C3.24452 31.3922 2.625 30.834 2.625 30.0964V20.9442ZM12.4648 29.0669C12.4085 29.1165 12.39 29.1685 12.39 29.2112V32.517C12.39 32.5596 12.4085 32.6117 12.4648 32.6613C12.522 32.7117 12.6122 32.7516 12.7239 32.7516H27.3175C27.4293 32.7516 27.5194 32.7117 27.5767 32.6613C27.633 32.6117 27.6514 32.5596 27.6514 32.517V29.2112C27.6514 29.1685 27.633 29.1165 27.5767 29.0669C27.5194 29.0165 27.4293 28.9766 27.3175 28.9766H12.7239C12.6122 28.9766 12.522 29.0165 12.4648 29.0669ZM11.39 29.2112C11.39 28.4716 12.0487 27.9766 12.7239 27.9766H27.3175C27.9928 27.9766 28.6514 28.4716 28.6514 29.2112V32.517C28.6514 33.2565 27.9928 33.7516 27.3175 33.7516H12.7239C12.0487 33.7516 11.39 33.2565 11.39 32.517V29.2112Z" fill="#FAFCFF"/>
</svg>
